!!!!SEGMENT: pl-wnifc--13846--046_anonim--piesni-polskie-i-ruskie-ludu-galicyjskiego-46-podkowecki-dajcie-wognia.krn
!!!kernsource:
!!!cenid: 18xx:3268
!!!COM: Anonim
!!!COM-rismID: pe30004985
!!!CDT:
!!!CNT:
!!!GTL: Pieśni polskie i ruskie ludu galicyjskiego
!!!OTL: 46. Podkówecki dajcie wognia
!!!PDT: 1833
!!!AGN:
!!!SMS-siglum: PL-Wnifc
!!!SMS-shelfmark: 13846
!!!SMS-shelfwork: 046 G
!!!SMS-variant:
!!!SMS-altvar:
!!!NIFC-rismSourceID: 1001036701
!!!NIFC-rismChildID: 1001036939
!!!NIFC-islandoraID: nifc:210326
!!!URL-pdf-islandora: https://repozytorium.nifc.pl/islandora/object/nifc%3A210326/datastream/PDF/view
!!!URL-scan:
!!!ONB-nifc:
!!!OMD: Mazur
!!!AIN: 1 piano 1 vox
!!!key: C
**kern	**kern	**kern	**text
*part2	*part2	*part1	*part1
*staff3	*staff2	*staff1	*staff1
*I"Fortepian	*I"Fortepian	*I"Głos	*
*Ipiano	*Ipiano	*Ivox	*
*ICklav	*ICklav	*ICvox	*
*IGacmp	*IGacmp	*IGsolo	*
*clefF4	*clefG2	*clefG2	*
*k[]	*k[]	*k[]	*
*C:	*C:	*C:	*
*M3/8	*M3/8	*M3/8	*
=1	=1	=1	=1
!LO:TX:t=P:problem=mixed beam	!	!LO:TX:a:t=D.b.Б.\n790.	!
8CC/L 8C/	16g\LL	16g/	Pod-
.	16cc\JJ	16cc\	-kó-
8G\ 8c\ 8e\	8cc\L	8cc\	-wec-
.	8qb/	.	.
8G\J 8c\ 8e\	16cc\L	(16cc\LL	-ki
.	16b\JJ	16b\JJ)	.
=2	=2	=2	=2
!LO:TX:t=P:problem=mixed beam	!	!	!
8CC/L	16cc\LL	16cc\	daj-
.	16ee\JJ	16ee\	-cie
!	!LO:N:vis=4	!	!
8G\ 8c\ 8e\	8cc\	8cc\	wog-
.	8qcc/	.	.
8G\J 8c\ 8e\	(16b\LL	(16b\LL	-nia
.	16a/JJ)	16a/JJ)	.
!!LO:PB:g=original
=3	=3	=3	=3
!LO:TX:t=P:problem=mixed beam	!	!	!
8GG/L	16g/LL	16g/	bo
.	16b\JJ	16b\	dziew-
8G\ 8d\ 8f\	8b\	8b\	-cy-
.	8qcc/	.	.
8G\J 8d\ 8f\	(16b\LL	(16b\LL	-na
.	16a/JJ)	16a/JJ)	.
=4	=4	=4	=4
!LO:TX:t=P:problem=mixed beam	!	!	!
8GG/L	16b|>\LL	16b\	te-
.	16cc|>\	16cc\	-go
8G\ 8B\ 8f\	(16dd\	(16dd\LL	go-
.	16ee\JJ)	16ee\JJ)	.
8c\J 8e\	8cc\	8cc\	-dna
!!LO:LB:g=original
=5	=5	=5	=5
!LO:TX:t=P:problem=mixed beam	!	!	!
8CC/L	16g|>\LL	16g/	a
.	16cc|>\JJ	16cc\	cy
8G\ 8c\ 8e\	8cc\	8cc\	go-
.	8qdd/	.	.
8G\J 8c\ 8e\	(16cc\LL	(16cc\LL	-dna
.	16b\JJ)	16b\JJ)	.
=6	=6	=6	=6
!LO:TX:t=P:problem=mixed beam	!	!	!
8CC/L	16cc|>\LL	16cc\	cy
.	(32dd\L	(32dd\LLL	nie
.	32ee\JJJ)	32ee\JJJ)	.
8G\ 8c\ 8e\	8cc\	8cc\	go-
8G\J 8c\ 8e\	(16b\LL	(16b\LL	-dna
.	16a\JJ)	16a/JJ)	.
!!LO:LB:g=original
=7	=7	=7	=7
!LO:TX:t=P:problem=mixed beam	!	!	!
8GG/L	16g|<\LL	16g/	pod-
.	16b|<\JJ	16b\	-kó-
8G\ 8d\ 8f\	8b\L	8b\	-wec-
.	8qcc/	.	.
8G\J	(16b\L	(16b\LL	-ki
.	16a/JJ)	16a/JJ)	.
=8	=8	=8	=8
8GG/	16b\LL	16b\	daj-
.	16cc\JJ	16cc\	-cie
!!LO:LB:g=original
=	=	=	=
8G\L 8B\ 8f\	(16dd\LL	(16dd\LL	wog-
.	16ee\JJ)	16ee\JJ)	.
8c\J 8e\	8cc\	8cc\	-nia
==9	==9	==9	==9
!LO:TX:t=P:problem=mixed beam	!	!	!
8CC/L	16cc\LL 16ee\	16ee\	Nu-
.	16dd\JJ 16ff\	16ff\	-ze
8G\ 8c\ 8e\	8ee\ 8gg\	8gg\	ży-
8G\J 8c\ 8e\	(>16ee\LL 16gg\	(16gg\LL	-wo
.	16dd#X\JJ) 16ff#X\	16ff#X\JJ)	.
!!LO:PB:g=original
=10	=10	=10	=10
8C/L	16ee\LL 16gg\	16gg\	nu-
.	16ee\JJ 16gg\	16gg\	-ze
8G\ 8c\ 8e\	8.ffn\L 8.aa\	8.aa\	da-
8G\J 8c\ 8e\	.	.	.
.	16ee\Jk 16gg\	16gg\	-lej
=11	=11	=11	=11
!LO:TX:t=P:problem=mixed beam	!	!	!
8GG/L	16dd\LL 16ff\	16ff\	bo
.	16cc#X\JJ 16ee\	16ee\	pod-
8G\ 8B\ 8d\	8dd\L 8ff\	8ff\	-kó-
8G\J 8B\ 8d\	8dd\J 8ff\	8ff\	-wki
!!LO:LB:g=original
=12	=12	=12	=12
!LO:TX:t=P:problem=mixed beam	!	!	!
8GG/L	16dd\LL 16ff\	16ff\	są
.	16dd\JJ 16ff\	16ff\	ze
8G\ 8B\ 8d\	8.ee\L 8.gg\	8.gg\	sta-
8G\J 8B\ 8d\	.	.	.
.	16dd\Jk 16ff\	16ff\	-li,
=13	=13	=13	=13
8C/L	16cc\LL 16ee\	16ee\	a
.	16cc\JJ	16cc\	choć-
8G\ 8c\ 8e\	8cc\	8cc\	-by
.	8qdd/	8qdd/	.
8G\J 8c\ 8e\	(16cc\LL	(16cc\LL	się
.	16b\JJ)	16b\JJ)	.
!!LO:LB:g=original
=14	=14	=14	=14
8C/L	16cc|>\LL	16cc\	wy-
.	16ee|>\JJ	16ee\	-kze-
8G\ 8c\ 8e\	8cc\	8cc\	-sa-
.	8qcc/	.	.
8G\J 8c\ 8e\	(16b\LL	(16b\LL	-li
.	16a/JJ)	16a/JJ)	.
=15	=15	=15	=15
!LO:TX:t=P:problem=mixed beam	!	!	!
8GG/L	16g/LL	16g/	nu-
.	16b\JJ	16b\	-ze
8G\ 8d\ 8f\	8b\	8b\	ży-
.	8qcc/	.	.
8G\J 8d\ 8f\	(16b\LL	(16b\LL	-wo
.	16a/JJ)	16a/JJ)	.
!!LO:LB:g=original
=16	=16	=16	=16
!LO:TX:t=P:problem=mixed beam	!	!	!
8GG/L	16b\LL	16b\	nu-
.	16cc\JJ	16cc\	-ze
8G\ 8c\ 8e\	8dd\	8dd\	da-
8G\J 8c\ 8e\	8cc\	8cc\	-léj.
!!LO:PB:g=original
==	==	==	==
*-	*-	*-	*-
!!!system-decoration: s1,{(s2,s3)}
!!!RDF**kern: < = below
!!!RDF**kern: > = above
!!!RDF**kern: | = vertical stroke
!!!ENC: Marta Chmielewska
!!!END: 2021-11-10
!!!YEC: Copyright 2022 Narodowy Instytut Fryderyka Chopina (https://polishscores.org)
!!!YEM: License CC-BY-4.0 (https://creativecommons.org/licenses/by/4.0)
